public/images/icons/profile.svg

<?xml version="1.0" encoding="UTF-8"?>
<svg width="51px" height="51px" viewBox="0 0 51 51" version="1.1" xmlns="http://www.w3.org/2000/svg" xmlns:xlink="http://www.w3.org/1999/xlink">
    <title>profile</title>
    <defs>
        <filter color-interpolation-filters="auto" id="filter-1">
            <feColorMatrix in="SourceGraphic" type="matrix" values="0 0 0 0 0.974977 0 0 0 0 0.989612 0 0 0 0 0.991508 0 0 0 1.000000 0"></feColorMatrix>
        </filter>
        <filter color-interpolation-filters="auto" id="filter-2">
            <feColorMatrix in="SourceGraphic" type="matrix" values="0 0 0 0 0.511792 0 0 0 0 0.190149 0 0 0 0 1.000000 0 0 0 1.000000 0"></feColorMatrix>
        </filter>
    </defs>
    <g id="Homepage" stroke="none" stroke-width="1" fill="none" fill-rule="evenodd">
        <g id="Homepage-V2" transform="translate(-1059.000000, -2301.000000)">
            <g id="profile" transform="translate(1059.000000, 2301.000000)">
                <g filter="url(#filter-1)" id="Group-14">
                    <g>
                        <circle id="Oval" fill="#D8D8D8" cx="13.5" cy="1.5" r="1.5"></circle>
                        <circle id="Oval" fill="#D8D8D8" cx="31.5" cy="1.5" r="1.5"></circle>
                        <circle id="Oval" fill="#D8D8D8" cx="37.5" cy="7.5" r="1.5"></circle>
                        <circle id="Oval" fill="#D8D8D8" cx="43.5" cy="1.5" r="1.5"></circle>
                        <circle id="Oval" fill="#D8D8D8" cx="49.5" cy="1.5" r="1.5"></circle>
                        <circle id="Oval" fill="#D8D8D8" cx="43.5" cy="7.5" r="1.5"></circle>
                        <circle id="Oval" fill="#D8D8D8" cx="49.5" cy="7.5" r="1.5"></circle>
                        <circle id="Oval" fill="#D8D8D8" cx="7.5" cy="7.5" r="1.5"></circle>
                        <circle id="Oval" fill="#D8D8D8" cx="25.5" cy="1.5" r="1.5"></circle>
                        <circle id="Oval" fill="#D8D8D8" cx="25.5" cy="7.5" r="1.5"></circle>
                        <circle id="Oval" fill="#D8D8D8" cx="1.5" cy="1.5" r="1.5"></circle>
                        <circle id="Oval" fill="#D8D8D8" cx="1.5" cy="7.5" r="1.5"></circle>
                        <circle id="Oval" fill="#D8D8D8" cx="19.5" cy="1.5" r="1.5"></circle>
                        <circle id="Oval" fill="#D8D8D8" cx="19.5" cy="7.5" r="1.5"></circle>
                        <circle id="Oval" fill="#D8D8D8" cx="37.5" cy="31.5" r="1.5"></circle>
                        <circle id="Oval" fill="#D8D8D8" cx="43.5" cy="25.5" r="1.5"></circle>
                        <circle id="Oval" fill="#D8D8D8" cx="49.5" cy="25.5" r="1.5"></circle>
                        <circle id="Oval" fill="#D8D8D8" cx="49.5" cy="37.5" r="1.5"></circle>
                        <circle id="Oval" fill="#D8D8D8" cx="49.5" cy="49.5" r="1.5"></circle>
                        <circle id="Oval" fill="#D8D8D8" cx="7.5" cy="31.5" r="1.5"></circle>
                        <circle id="Oval" fill="#D8D8D8" cx="25.5" cy="25.5" r="1.5"></circle>
                        <circle id="Oval" fill="#D8D8D8" cx="25.5" cy="31.5" r="1.5"></circle>
                        <circle id="Oval" fill="#D8D8D8" cx="1.5" cy="25.5" r="1.5"></circle>
                        <circle id="Oval" fill="#D8D8D8" cx="19.5" cy="25.5" r="1.5"></circle>
                        <circle id="Oval" fill="#D8D8D8" cx="19.5" cy="31.5" r="1.5"></circle>
                        <circle id="Oval" fill="#D8D8D8" cx="37.5" cy="13.5" r="1.5"></circle>
                        <circle id="Oval" fill="#D8D8D8" cx="37.5" cy="19.5" r="1.5"></circle>
                        <circle id="Oval" fill="#D8D8D8" cx="43.5" cy="13.5" r="1.5"></circle>
                        <circle id="Oval" fill="#D8D8D8" cx="49.5" cy="13.5" r="1.5"></circle>
                        <circle id="Oval" fill="#D8D8D8" cx="43.5" cy="19.5" r="1.5"></circle>
                        <circle id="Oval" fill="#D8D8D8" cx="49.5" cy="19.5" r="1.5"></circle>
                        <circle id="Oval" fill="#D8D8D8" cx="49.5" cy="31.5" r="1.5"></circle>
                        <circle id="Oval" fill="#D8D8D8" cx="49.5" cy="43.5" r="1.5"></circle>
                        <circle id="Oval" fill="#D8D8D8" cx="7.5" cy="13.5" r="1.5"></circle>
                        <circle id="Oval" fill="#D8D8D8" cx="7.5" cy="19.5" r="1.5"></circle>
                        <circle id="Oval" fill="#D8D8D8" cx="25.5" cy="13.5" r="1.5"></circle>
                        <circle id="Oval" fill="#D8D8D8" cx="25.5" cy="19.5" r="1.5"></circle>
                        <circle id="Oval" fill="#D8D8D8" cx="1.5" cy="13.5" r="1.5"></circle>
                        <circle id="Oval" fill="#D8D8D8" cx="1.5" cy="19.5" r="1.5"></circle>
                        <circle id="Oval" fill="#D8D8D8" cx="19.5" cy="13.5" r="1.5"></circle>
                        <circle id="Oval" fill="#D8D8D8" cx="19.5" cy="19.5" r="1.5"></circle>
                        <circle id="Oval" fill="#D8D8D8" cx="13.5" cy="37.5" r="1.5"></circle>
                        <circle id="Oval" fill="#D8D8D8" cx="13.5" cy="43.5" r="1.5"></circle>
                        <circle id="Oval" fill="#D8D8D8" cx="13.5" cy="49.5" r="1.5"></circle>
                        <circle id="Oval" fill="#D8D8D8" cx="31.5" cy="37.5" r="1.5"></circle>
                        <circle id="Oval" fill="#D8D8D8" cx="31.5" cy="43.5" r="1.5"></circle>
                        <circle id="Oval" fill="#D8D8D8" cx="31.5" cy="49.5" r="1.5"></circle>
                        <circle id="Oval" fill="#D8D8D8" cx="37.5" cy="37.5" r="1.5"></circle>
                        <circle id="Oval" fill="#D8D8D8" cx="37.5" cy="43.5" r="1.5"></circle>
                        <circle id="Oval" fill="#D8D8D8" cx="37.5" cy="49.5" r="1.5"></circle>
                        <circle id="Oval" fill="#D8D8D8" cx="43.5" cy="37.5" r="1.5"></circle>
                        <circle id="Oval" fill="#D8D8D8" cx="43.5" cy="43.5" r="1.5"></circle>
                        <circle id="Oval" fill="#D8D8D8" cx="7.5" cy="37.5" r="1.5"></circle>
                        <circle id="Oval" fill="#D8D8D8" cx="7.5" cy="43.5" r="1.5"></circle>
                        <circle id="Oval" fill="#D8D8D8" cx="7.5" cy="49.5" r="1.5"></circle>
                        <circle id="Oval" fill="#D8D8D8" cx="25.5" cy="37.5" r="1.5"></circle>
                        <circle id="Oval" fill="#D8D8D8" cx="25.5" cy="43.5" r="1.5"></circle>
                        <circle id="Oval" fill="#D8D8D8" cx="25.5" cy="49.5" r="1.5"></circle>
                        <circle id="Oval" fill="#D8D8D8" cx="1.5" cy="37.5" r="1.5"></circle>
                        <circle id="Oval" fill="#D8D8D8" cx="1.5" cy="43.5" r="1.5"></circle>
                        <circle id="Oval" fill="#D8D8D8" cx="19.5" cy="37.5" r="1.5"></circle>
                        <circle id="Oval" fill="#D8D8D8" cx="19.5" cy="43.5" r="1.5"></circle>
                        <circle id="Oval" fill="#D8D8D8" cx="19.5" cy="49.5" r="1.5"></circle>
                        <circle id="Oval" fill="#8330FF" cx="37.5" cy="1.5" r="1.5"></circle>
                        <circle id="Oval" fill="#8330FF" cx="7.5" cy="1.5" r="1.5"></circle>
                        <circle id="Oval" fill="#8330FF" cx="13.5" cy="25.5" r="1.5"></circle>
                        <circle id="Oval" fill="#8330FF" cx="13.5" cy="31.5" r="1.5"></circle>
                        <circle id="Oval" fill="#8330FF" cx="31.5" cy="25.5" r="1.5"></circle>
                        <circle id="Oval" fill="#8330FF" cx="31.5" cy="31.5" r="1.5"></circle>
                        <circle id="Oval" fill="#8330FF" cx="37.5" cy="25.5" r="1.5"></circle>
                        <circle id="Oval" fill="#8330FF" cx="43.5" cy="31.5" r="1.5"></circle>
                        <circle id="Oval" fill="#8330FF" cx="7.5" cy="25.5" r="1.5"></circle>
                        <circle id="Oval" fill="#8330FF" cx="1.5" cy="31.5" r="1.5"></circle>
                        <circle id="Oval" fill="#8330FF" cx="13.5" cy="13.5" r="1.5"></circle>
                        <circle id="Oval" fill="#8330FF" cx="13.5" cy="19.5" r="1.5"></circle>
                        <circle id="Oval" fill="#8330FF" cx="31.5" cy="13.5" r="1.5"></circle>
                        <circle id="Oval" fill="#8330FF" cx="31.5" cy="19.5" r="1.5"></circle>
                        <circle id="Oval" fill="#8330FF" cx="43.5" cy="49.5" r="1.5"></circle>
                        <circle id="Oval" fill="#8330FF" cx="1.5" cy="49.5" r="1.5"></circle>
                    </g>
                </g>
                <g filter="url(#filter-2)" id="Profile">
                    <g transform="translate(1.500000, 1.500000)">
                        <path d="M0,48 L0,38 C-5.41083001e-16,33.581722 3.581722,30 8,30 L18,30 L18,30 L18,24 L16,24 C13.790861,24 12,22.209139 12,20 L12,4 C12,1.790861 13.790861,-1.37054459e-15 16,0 L32,0 C34.209139,-4.05812251e-16 36,1.790861 36,4 L36,20 C36,22.209139 34.209139,24 32,24 L30,24 L30,24 L30,30 L40,30 C44.418278,30 48,33.581722 48,38 L48,48 L48,48" id="Path-2" stroke="#8330FF" stroke-width="3" stroke-linecap="round" stroke-linejoin="round"></path>
                        <polyline id="Path-3" stroke="#8330FF" stroke-width="3" stroke-linecap="round" stroke-linejoin="round" points="18 12 18 18 30 18 30 12"></polyline>
                        <circle id="Oval" fill="#8330FF" cx="18" cy="6" r="1.5"></circle>
                        <circle id="Oval" fill="#8330FF" cx="30" cy="6" r="1.5"></circle>
                        <line x1="12" y1="42" x2="12" y2="48" id="Path-5" stroke="#979797" stroke-width="3" stroke-linecap="round" stroke-linejoin="round"></line>
                        <line x1="36" y1="42" x2="36" y2="48" id="Path-5" stroke="#979797" stroke-width="3" stroke-linecap="round" stroke-linejoin="round"></line>
                    </g>
                </g>
            </g>
        </g>
    </g>
</svg>

<svg width="51" height="51" xmlns="http://www.w3.org/2000/svg"><defs><filter color-interpolation-filters="auto" id="a"><feColorMatrix in="SourceGraphic" values="0 0 0 0 0.974977 0 0 0 0 0.989612 0 0 0 0 0.991508 0 0 0 1.000000 0"/></filter><filter color-interpolation-filters="auto" id="b"><feColorMatrix in="SourceGraphic" values="0 0 0 0 0.511792 0 0 0 0 0.190149 0 0 0 0 1.000000 0 0 0 1.000000 0"/></filter></defs><g fill="none" fill-rule="evenodd"><g filter="url(#a)"><circle fill="#D8D8D8" cx="13.5" cy="1.5" r="1.5"/><circle fill="#D8D8D8" cx="31.5" cy="1.5" r="1.5"/><circle fill="#D8D8D8" cx="37.5" cy="7.5" r="1.5"/><circle fill="#D8D8D8" cx="43.5" cy="1.5" r="1.5"/><circle fill="#D8D8D8" cx="49.5" cy="1.5" r="1.5"/><circle fill="#D8D8D8" cx="43.5" cy="7.5" r="1.5"/><circle fill="#D8D8D8" cx="49.5" cy="7.5" r="1.5"/><circle fill="#D8D8D8" cx="7.5" cy="7.5" r="1.5"/><circle fill="#D8D8D8" cx="25.5" cy="1.5" r="1.5"/><circle fill="#D8D8D8" cx="25.5" cy="7.5" r="1.5"/><circle fill="#D8D8D8" cx="1.5" cy="1.5" r="1.5"/><circle fill="#D8D8D8" cx="1.5" cy="7.5" r="1.5"/><circle fill="#D8D8D8" cx="19.5" cy="1.5" r="1.5"/><circle fill="#D8D8D8" cx="19.5" cy="7.5" r="1.5"/><circle fill="#D8D8D8" cx="37.5" cy="31.5" r="1.5"/><circle fill="#D8D8D8" cx="43.5" cy="25.5" r="1.5"/><circle fill="#D8D8D8" cx="49.5" cy="25.5" r="1.5"/><circle fill="#D8D8D8" cx="49.5" cy="37.5" r="1.5"/><circle fill="#D8D8D8" cx="49.5" cy="49.5" r="1.5"/><circle fill="#D8D8D8" cx="7.5" cy="31.5" r="1.5"/><circle fill="#D8D8D8" cx="25.5" cy="25.5" r="1.5"/><circle fill="#D8D8D8" cx="25.5" cy="31.5" r="1.5"/><circle fill="#D8D8D8" cx="1.5" cy="25.5" r="1.5"/><circle fill="#D8D8D8" cx="19.5" cy="25.5" r="1.5"/><circle fill="#D8D8D8" cx="19.5" cy="31.5" r="1.5"/><circle fill="#D8D8D8" cx="37.5" cy="13.5" r="1.5"/><circle fill="#D8D8D8" cx="37.5" cy="19.5" r="1.5"/><circle fill="#D8D8D8" cx="43.5" cy="13.5" r="1.5"/><circle fill="#D8D8D8" cx="49.5" cy="13.5" r="1.5"/><circle fill="#D8D8D8" cx="43.5" cy="19.5" r="1.5"/><circle fill="#D8D8D8" cx="49.5" cy="19.5" r="1.5"/><circle fill="#D8D8D8" cx="49.5" cy="31.5" r="1.5"/><circle fill="#D8D8D8" cx="49.5" cy="43.5" r="1.5"/><circle fill="#D8D8D8" cx="7.5" cy="13.5" r="1.5"/><circle fill="#D8D8D8" cx="7.5" cy="19.5" r="1.5"/><circle fill="#D8D8D8" cx="25.5" cy="13.5" r="1.5"/><circle fill="#D8D8D8" cx="25.5" cy="19.5" r="1.5"/><circle fill="#D8D8D8" cx="1.5" cy="13.5" r="1.5"/><circle fill="#D8D8D8" cx="1.5" cy="19.5" r="1.5"/><circle fill="#D8D8D8" cx="19.5" cy="13.5" r="1.5"/><circle fill="#D8D8D8" cx="19.5" cy="19.5" r="1.5"/><circle fill="#D8D8D8" cx="13.5" cy="37.5" r="1.5"/><circle fill="#D8D8D8" cx="13.5" cy="43.5" r="1.5"/><circle fill="#D8D8D8" cx="13.5" cy="49.5" r="1.5"/><circle fill="#D8D8D8" cx="31.5" cy="37.5" r="1.5"/><circle fill="#D8D8D8" cx="31.5" cy="43.5" r="1.5"/><circle fill="#D8D8D8" cx="31.5" cy="49.5" r="1.5"/><circle fill="#D8D8D8" cx="37.5" cy="37.5" r="1.5"/><circle fill="#D8D8D8" cx="37.5" cy="43.5" r="1.5"/><circle fill="#D8D8D8" cx="37.5" cy="49.5" r="1.5"/><circle fill="#D8D8D8" cx="43.5" cy="37.5" r="1.5"/><circle fill="#D8D8D8" cx="43.5" cy="43.5" r="1.5"/><circle fill="#D8D8D8" cx="7.5" cy="37.5" r="1.5"/><circle fill="#D8D8D8" cx="7.5" cy="43.5" r="1.5"/><circle fill="#D8D8D8" cx="7.5" cy="49.5" r="1.5"/><circle fill="#D8D8D8" cx="25.5" cy="37.5" r="1.5"/><circle fill="#D8D8D8" cx="25.5" cy="43.5" r="1.5"/><circle fill="#D8D8D8" cx="25.5" cy="49.5" r="1.5"/><circle fill="#D8D8D8" cx="1.5" cy="37.5" r="1.5"/><circle fill="#D8D8D8" cx="1.5" cy="43.5" r="1.5"/><circle fill="#D8D8D8" cx="19.5" cy="37.5" r="1.5"/><circle fill="#D8D8D8" cx="19.5" cy="43.5" r="1.5"/><circle fill="#D8D8D8" cx="19.5" cy="49.5" r="1.5"/><circle fill="#8330FF" cx="37.5" cy="1.5" r="1.5"/><circle fill="#8330FF" cx="7.5" cy="1.5" r="1.5"/><circle fill="#8330FF" cx="13.5" cy="25.5" r="1.5"/><circle fill="#8330FF" cx="13.5" cy="31.5" r="1.5"/><circle fill="#8330FF" cx="31.5" cy="25.5" r="1.5"/><circle fill="#8330FF" cx="31.5" cy="31.5" r="1.5"/><circle fill="#8330FF" cx="37.5" cy="25.5" r="1.5"/><circle fill="#8330FF" cx="43.5" cy="31.5" r="1.5"/><circle fill="#8330FF" cx="7.5" cy="25.5" r="1.5"/><circle fill="#8330FF" cx="1.5" cy="31.5" r="1.5"/><circle fill="#8330FF" cx="13.5" cy="13.5" r="1.5"/><circle fill="#8330FF" cx="13.5" cy="19.5" r="1.5"/><circle fill="#8330FF" cx="31.5" cy="13.5" r="1.5"/><circle fill="#8330FF" cx="31.5" cy="19.5" r="1.5"/><circle fill="#8330FF" cx="43.5" cy="49.5" r="1.5"/><circle fill="#8330FF" cx="1.5" cy="49.5" r="1.5"/></g><g filter="url(#b)"><g transform="translate(1.5 1.5)"><path d="M0 48V38a8 8 0 0 1 8-8h10v-6h-2a4 4 0 0 1-4-4V4a4 4 0 0 1 4-4h16a4 4 0 0 1 4 4v16a4 4 0 0 1-4 4h-2 0v6h10a8 8 0 0 1 8 8v10h0" stroke="#8330FF" stroke-width="3" stroke-linecap="round" stroke-linejoin="round"/><path stroke="#8330FF" stroke-width="3" stroke-linecap="round" stroke-linejoin="round" d="M18 12v6h12v-6"/><circle fill="#8330FF" cx="18" cy="6" r="1.5"/><circle fill="#8330FF" cx="30" cy="6" r="1.5"/><path stroke="#979797" stroke-width="3" stroke-linecap="round" stroke-linejoin="round" d="M12 42v6m24-6v6"/></g></g></g></svg>
